packages/core/src/svgs/tokens/branded/XNA.svg

<svg width="24" height="24" viewBox="0 0 24 24" fill="none" xmlns="http://www.w3.org/2000/svg">
<path fill-rule="evenodd" clip-rule="evenodd" d="M14.9414 7.74103V14.0528L14.8944 14.0646H14.8885L9.54725 6.94691C9.5327 6.92643 9.52652 6.90123 9.52968 6.87632C9.60503 6.5091 9.5644 6.1275 9.41315 5.78446C9.26189 5.44142 9.00768 5.15395 8.6857 4.96193C8.36372 4.7699 7.98997 4.68285 7.61628 4.71283C7.24259 4.74282 6.88748 4.88836 6.60025 5.12926C6.23914 5.43899 6.01584 5.87944 5.97944 6.35378C5.94304 6.82812 6.09652 7.29749 6.40613 7.65867C6.42965 7.68809 6.44142 7.72339 6.44142 7.75868V16.2527L6.42377 16.3057L6.30612 16.4704C6.13086 16.714 6.01973 16.9979 5.98296 17.2956C5.94619 17.5934 5.98496 17.8958 6.0957 18.1747C6.20645 18.4536 6.38559 18.7001 6.61666 18.8916C6.84773 19.0832 7.12326 19.2135 7.41789 19.2704C7.79572 19.3493 8.18898 19.3031 8.53817 19.1385C8.88735 18.9741 9.17345 18.7003 9.35317 18.3586C9.52926 18.0339 9.59995 17.6625 9.55576 17.2957C9.51142 16.9291 9.3544 16.5852 9.10612 16.3116L9.08847 16.2939C9.07671 16.2822 9.05906 16.2645 9.05906 16.2527V10.8117C9.05906 10.7646 9.10023 10.7646 9.12377 10.7999L14.412 17.8233C14.4768 17.9116 14.512 18.0117 14.5473 18.1175L14.6356 18.3234C14.8138 18.6718 15.1011 18.9524 15.4537 19.1223C15.8063 19.2922 16.2048 19.3422 16.5884 19.2645C16.8971 19.2052 17.1845 19.0656 17.422 18.8597C17.6594 18.654 17.8384 18.3892 17.9411 18.0922C18.0436 17.7952 18.0661 17.4765 18.0063 17.1679C17.9464 16.8595 17.8064 16.5723 17.6003 16.3351C17.5777 16.3089 17.5653 16.2755 17.565 16.2411V7.75868C17.565 7.72339 17.5766 7.69397 17.6003 7.66456C17.76 7.48245 17.8807 7.2694 17.9545 7.03867C18.0284 6.80793 18.054 6.56444 18.0296 6.32339C18.0046 6.03831 17.912 5.76332 17.7593 5.52122C17.6067 5.27913 17.3986 5.0769 17.1523 4.93132C16.9059 4.78575 16.6282 4.70102 16.3426 4.68416C16.057 4.6673 15.7713 4.7188 15.5096 4.83438C15.2477 4.94996 15.0173 5.12631 14.8373 5.34877C14.6572 5.57125 14.5329 5.83342 14.4744 6.11357C14.4161 6.39372 14.4253 6.68377 14.5013 6.95963C14.5775 7.2355 14.7182 7.48926 14.912 7.69985L14.9238 7.71161C14.9356 7.7175 14.9473 7.72926 14.9473 7.74103H14.9414ZM8.96494 6.48808C8.96494 6.80635 8.83852 7.11157 8.61347 7.33662C8.38843 7.56166 8.0832 7.68809 7.76495 7.68809C7.44668 7.68809 7.14146 7.56166 6.91641 7.33662C6.69137 7.11157 6.56495 6.80635 6.56495 6.48808C6.56495 6.16983 6.69137 5.8646 6.91641 5.63956C7.14146 5.41452 7.44668 5.28809 7.76495 5.28809C8.0832 5.28809 8.38843 5.41452 8.61347 5.63956C8.83852 5.8646 8.96494 6.16983 8.96494 6.48808ZM16.2355 7.68809C16.3998 7.6996 16.5647 7.6772 16.7199 7.62226C16.8751 7.56733 17.0173 7.48102 17.1378 7.36874C17.2582 7.25646 17.3543 7.12059 17.4199 6.96959C17.4857 6.81859 17.5196 6.65568 17.5196 6.49103C17.5196 6.32637 17.4857 6.16347 17.4199 6.01247C17.3543 5.86147 17.2582 5.7256 17.1378 5.61332C17.0173 5.50103 16.8751 5.41474 16.7199 5.35979C16.5647 5.30486 16.3998 5.28245 16.2355 5.29398C15.9326 5.31523 15.6489 5.45057 15.4418 5.67273C15.2347 5.89488 15.1195 6.1873 15.1195 6.49103C15.1195 6.79475 15.2347 7.08719 15.4418 7.30933C15.6489 7.53148 15.9326 7.66684 16.2355 7.68809ZM8.96494 17.5116C8.96494 17.6692 8.93391 17.8253 8.8736 17.9709C8.81329 18.1164 8.72491 18.2487 8.61347 18.3601C8.50205 18.4716 8.36976 18.56 8.22416 18.6202C8.07858 18.6806 7.92253 18.7117 7.76495 18.7117C7.60735 18.7117 7.45132 18.6806 7.30572 18.6202C7.16014 18.56 7.02785 18.4716 6.91641 18.3601C6.80499 18.2487 6.7166 18.1164 6.65629 17.9709C6.59599 17.8253 6.56495 17.6692 6.56495 17.5116C6.56495 17.1933 6.69137 16.8881 6.91641 16.6631C7.14146 16.438 7.44668 16.3116 7.76495 16.3116C8.0832 16.3116 8.38843 16.438 8.61347 16.6631C8.83852 16.8881 8.96494 17.1933 8.96494 17.5116ZM16.2355 18.7057C16.3998 18.7173 16.5647 18.6949 16.7199 18.6399C16.8751 18.585 17.0173 18.4986 17.1378 18.3864C17.2582 18.2741 17.3543 18.1382 17.4199 17.9872C17.4857 17.8362 17.5196 17.6733 17.5196 17.5086C17.5196 17.344 17.4857 17.1811 17.4199 17.0301C17.3543 16.8792 17.2582 16.7433 17.1378 16.631C17.0173 16.5187 16.8751 16.4324 16.7199 16.3775C16.5647 16.3225 16.3998 16.3001 16.2355 16.3116C15.9326 16.3329 15.6489 16.4682 15.4418 16.6903C15.2347 16.9125 15.1195 17.205 15.1195 17.5086C15.1195 17.8124 15.2347 18.1048 15.4418 18.3269C15.6489 18.5491 15.9326 18.6845 16.2355 18.7057Z" fill="#460063"/>
<path fill-rule="evenodd" clip-rule="evenodd" d="M11.6882 2H12.3176C14.86 2.08665 17.2744 3.13615 19.0722 4.93603C20.8698 6.73589 21.9164 9.15162 22 11.6941V12.3176C21.9154 14.8511 20.8735 17.2583 19.0844 19.054C17.2953 20.8495 14.892 21.9002 12.3588 21.9941L12.3058 22H11.6882C9.14776 21.915 6.73432 20.8686 4.93584 19.0724C3.13736 17.2761 2.08802 14.8638 2 12.3235V11.6765C2.07692 9.13244 3.12268 6.71389 4.92349 4.91526C6.7243 3.11665 9.14411 2.07382 11.6882 2ZM21.1999 12C21.1999 14.44 20.2306 16.7801 18.5053 18.5054C16.78 20.2306 14.44 21.1999 12 21.1999C9.56003 21.1999 7.21994 20.2306 5.49462 18.5054C3.76928 16.7801 2.79999 14.44 2.79999 12C2.79999 9.56005 3.76928 7.21994 5.49462 5.4946C7.21994 3.76927 9.56003 2.79999 12 2.79999C14.44 2.79999 16.78 3.76927 18.5053 5.4946C20.2306 7.21994 21.1999 9.56005 21.1999 12Z" fill="#460063"/>
</svg>

<svg xmlns="http://www.w3.org/2000/svg" width="24" height="24" fill="none" viewBox="0 0 24 24">
    <path fill="#460063" fill-rule="evenodd" d="M14.941 7.741v6.312l-.047.012h-.005L9.547 6.947a.1.1 0 0 1-.017-.07A1.806 1.806 0 0 0 6.6 5.128a1.794 1.794 0 0 0-.194 2.53.16.16 0 0 1 .035.1v8.494l-.017.053-.118.164a1.79 1.79 0 0 0 1.112 2.8 1.776 1.776 0 0 0 1.935-.911 1.78 1.78 0 0 0-.247-2.047l-.018-.018c-.011-.012-.029-.03-.029-.041v-5.441c0-.047.041-.047.065-.012l5.288 7.023c.065.089.1.189.135.294l.089.206a1.79 1.79 0 0 0 1.952.942 1.787 1.787 0 0 0 1.012-2.93.15.15 0 0 1-.035-.094V7.76q0-.052.035-.094a1.77 1.77 0 0 0 .43-1.342 1.798 1.798 0 0 0-2.52-1.489 1.8 1.8 0 0 0-.598 2.866l.012.012c.012.006.023.017.023.029zM8.965 6.488a1.2 1.2 0 1 1-2.4 0 1.2 1.2 0 0 1 2.4 0m7.27 1.2a1.2 1.2 0 1 0 .168-2.395 1.2 1.2 0 0 0-.168 2.395m-7.27 9.824a1.2 1.2 0 1 1-2.4 0 1.2 1.2 0 0 1 2.4 0m7.27 1.194a1.2 1.2 0 0 0 1.285-1.197 1.2 1.2 0 0 0-1.285-1.197 1.2 1.2 0 0 0 0 2.394" clip-rule="evenodd"/>
    <path fill="#460063" fill-rule="evenodd" d="M11.688 2h.63A10.03 10.03 0 0 1 22 11.694v.624a10.02 10.02 0 0 1-9.641 9.676l-.053.006h-.618A10.03 10.03 0 0 1 2 12.324v-.647A9.98 9.98 0 0 1 11.688 2M21.2 12a9.2 9.2 0 1 1-18.4 0 9.2 9.2 0 0 1 18.4 0" clip-rule="evenodd"/>
</svg>
